resources/haticons/SVG/dock.svg

<!-- Generated by IcoMoon.io -->
<svg version="1.1" xmlns="http://www.w3.org/2000/svg" width="24" height="24" viewBox="0 0 24 24">
<title>dock</title>
<path d="M15.984 15v-9.984h-7.969v9.984h7.969zM15.984 1.031q0.797 0 1.406 0.586t0.609 1.383v14.016q0 0.797-0.609 1.383t-1.406 0.586h-7.969q-0.797 0-1.406-0.586t-0.609-1.383v-14.016q0-0.797 0.609-1.406t1.406-0.609zM8.016 23.016v-2.016h7.969v2.016h-7.969z"></path>
</svg>

<svg xmlns="http://www.w3.org/2000/svg" width="24" height="24"><path d="M15.984 15V5.016H8.015V15h7.969zm0-13.969q.797 0 1.406.586T17.999 3v14.016q0 .797-.609 1.383t-1.406.586H8.015q-.797 0-1.406-.586T6 17.016V3q0-.797.609-1.406T8.015.985zM8.016 23.016V21h7.969v2.016H8.016z"/></svg>
